src/img-documents/tableIcon.svg

<?xml version="1.0"?>
<svg xmlns="http://www.w3.org/2000/svg" xmlns:xlink="http://www.w3.org/1999/xlink" version="1.1" id="Capa_1" x="0px" y="0px" viewBox="0 0 512.001 512.001" style="enable-background:new 0 0 512.001 512.001;" xml:space="preserve" width="512px" height="512px" class=""><g><g><path style="fill:#6C0505" d="M154.195,361.349H37.045c-4.143,0-7.5-3.358-7.5-7.5s3.357-7.5,7.5-7.5h117.15  c4.143,0,7.5,3.358,7.5,7.5S158.338,361.349,154.195,361.349z" data-original="#6C0505" class="" data-old_color="#B3BDCC"/><g>
	<path style="fill:#6C0505" d="M26.148,396.125c-0.727,0-1.467-0.106-2.199-0.331c-3.96-1.213-6.188-5.407-4.975-9.367   L51.16,281.314c1.212-3.961,5.403-6.189,9.367-4.975c3.96,1.213,6.188,5.407,4.975,9.367L33.316,390.818   C32.328,394.047,29.357,396.125,26.148,396.125z" data-original="#6C0505" class="" data-old_color="#B59385"/>
	<path style="fill:#6C0505" d="M164.841,396.125c-3.21,0-6.18-2.077-7.168-5.306l-32.186-105.113   c-1.213-3.96,1.015-8.154,4.975-9.367c3.96-1.212,8.155,1.015,9.367,4.975l32.185,105.113c1.213,3.961-1.015,8.154-4.975,9.367   C166.309,396.018,165.568,396.125,164.841,396.125z" data-original="#6C0505" class="" data-old_color="#B59385"/>
</g><path style="fill:#FED08F" d="M58.209,227.921l-7.619-86.822c-1.253-14.273-13.205-25.223-27.534-25.223h-7.043  c-9.396,0-16.772,8.052-15.951,17.412L10.614,253.52c2.224,25.347,23.45,44.792,48.895,44.792h102.265  c8.522,0,15.43-6.908,15.43-15.43v-3.808c0-16.902-13.702-30.604-30.604-30.604H80.64C68.967,248.47,59.23,239.549,58.209,227.921z" data-original="#FED08F" class="" data-old_color="#78D7A8"/><path style="fill:#F4E08F" d="M18.18,115.876h-2.167c-9.396,0-16.772,8.052-15.951,17.412L10.614,253.52  c2.224,25.347,23.45,44.792,48.895,44.792h63.9C36.671,284.652,28.59,255.344,18.18,115.876z" data-original="#F4E08F" class="active-path" data-old_color="#69BF96"/><path style="fill:#6C0505" d="M474.955,361.349h-117.15c-4.143,0-7.5-3.358-7.5-7.5s3.357-7.5,7.5-7.5h117.15  c4.143,0,7.5,3.358,7.5,7.5S479.098,361.349,474.955,361.349z" data-original="#6C0505" class="" data-old_color="#B3BDCC"/><g>
	<path style="fill:#6C0505" d="M485.852,396.125c-3.21,0-6.18-2.077-7.168-5.306l-32.186-105.113   c-1.213-3.96,1.015-8.154,4.975-9.367c3.958-1.212,8.155,1.015,9.367,4.975l32.186,105.113c1.213,3.961-1.015,8.154-4.975,9.367   C487.319,396.018,486.579,396.125,485.852,396.125z" data-original="#6C0505" class="" data-old_color="#B59385"/>
	<path style="fill:#6C0505" d="M347.159,396.125c-0.728,0-1.467-0.106-2.199-0.331c-3.96-1.213-6.188-5.407-4.975-9.367   l32.186-105.113c1.213-3.961,5.404-6.189,9.367-4.975c3.96,1.213,6.188,5.407,4.975,9.367l-32.186,105.113   C353.339,394.047,350.368,396.125,347.159,396.125z" data-original="#6C0505" class="" data-old_color="#B59385"/>
</g><path style="fill:#F4E08F" d="M453.791,227.921l7.619-86.822c1.253-14.273,13.205-25.223,27.534-25.223h7.043  c9.396,0,16.772,8.052,15.951,17.412L501.386,253.52c-2.224,25.347-23.45,44.792-48.895,44.792H350.227  c-8.522,0-15.43-6.908-15.43-15.43v-3.808c0-16.902,13.702-30.604,30.603-30.604h65.96  C443.033,248.47,452.77,239.549,453.791,227.921z" data-original="#F4E08F" class="active-path" data-old_color="#799EE5"/><path style="fill:#FED08F" d="M457.467,186.03l-3.676,41.891c-1.02,11.628-10.758,20.549-22.431,20.549H365.4  c-16.902,0-30.604,13.702-30.604,30.604v3.808c0,8.522,6.908,15.43,15.43,15.43h102.265c15.906,0,30.163-7.599,39.161-19.488  C471.855,266.358,460.896,230.04,457.467,186.03z" data-original="#FED08F" class="" data-old_color="#6E8FD1"/><rect x="236.76" y="201.67" style="fill:#6C0505" width="38.473" height="156.11" data-original="#6C0505" class="" data-old_color="#B3BDCC"/><rect x="236.76" y="201.67" style="fill:#6C0505" width="38.473" height="33.574" data-original="#6C0505" class="" data-old_color="#A8B2BF"/><path style="fill:#F4E08F" d="M287.744,357.776h-63.488c-9.148,0-17.142,6.18-19.445,15.034l-1.814,6.972  c-1.164,4.474,2.213,8.841,6.835,8.841h92.335c4.623,0,7.999-4.367,6.836-8.841l-1.814-6.972  C304.886,363.956,296.893,357.776,287.744,357.776z" data-original="#F4E08F" class="active-path" data-old_color="#414C59"/><path style="fill:#FED08F" d="M361.69,167.419H150.31c-12.906,0-24.034,9.073-26.633,21.715l0,0  c-1.33,6.472,3.613,12.535,10.22,12.535h244.206c6.607,0,11.55-6.063,10.22-12.535l0,0  C385.724,176.492,374.596,167.419,361.69,167.419z" data-original="#FED08F" class="" data-old_color="#F4E08F"/><path style="fill:#FED08F" d="M289.571,201.668c-20.197-8.985-24.969-25.049-22.299-34.249H150.31  c-12.906,0-24.034,9.073-26.633,21.715c-1.33,6.472,3.613,12.535,10.22,12.535h155.674V201.668z" data-original="#FED08F" class="" data-old_color="#EBCE72"/></g></g> </svg>

<svg width="514" height="322" xmlns="http://www.w3.org/2000/svg" xmlns:xlink="http://www.w3.org/1999/xlink" overflow="hidden"><defs><clipPath id="clip0"><path d="M383 192 897 192 897 514 383 514Z" fill-rule="evenodd" clip-rule="evenodd"/></clipPath><clipPath id="clip1"><path d="M384 192 896 192 896 513 384 513Z" fill-rule="evenodd" clip-rule="evenodd"/></clipPath><clipPath id="clip2"><path d="M384 192 896 192 896 513 384 513Z" fill-rule="evenodd" clip-rule="evenodd"/></clipPath><clipPath id="clip3"><path d="M384 103 896 103 896 617 384 617Z" fill-rule="evenodd" clip-rule="evenodd"/></clipPath></defs><g clip-path="url(#clip0)" transform="translate(-383 -192)"><g clip-path="url(#clip1)"><g clip-path="url(#clip2)"><g clip-path="url(#clip3)"><path d="M154.195 361.348 37.0449 361.348C32.9019 361.348 29.5449 357.99 29.5449 353.848 29.5449 349.706 32.9019 346.348 37.0449 346.348L154.195 346.348C158.338 346.348 161.695 349.706 161.695 353.848 161.695 357.99 158.338 361.348 154.195 361.348Z" fill="#6C0505" transform="matrix(1 0 -0 1.00125 384 103.452)"/><path d="M26.1479 396.124C25.4209 396.124 24.681 396.018 23.949 395.793 19.989 394.58 17.761 390.386 18.974 386.426L51.1599 281.313C52.3719 277.352 56.5629 275.124 60.5269 276.338 64.4869 277.551 66.7149 281.745 65.5019 285.705L33.3159 390.817C32.3279 394.046 29.3569 396.124 26.1479 396.124Z" fill="#6C0505" transform="matrix(1 0 -0 1.00125 384 103.452)"/><path d="M164.841 396.124C161.631 396.124 158.661 394.047 157.673 390.818L125.487 285.705C124.274 281.745 126.502 277.551 130.462 276.338 134.422 275.126 138.617 277.353 139.829 281.313L172.014 386.426C173.227 390.387 170.999 394.58 167.039 395.793 166.309 396.017 165.568 396.124 164.841 396.124Z" fill="#6C0505" transform="matrix(1 0 -0 1.00125 384 103.452)"/><path d="M58.2089 227.921 50.5899 141.099C49.3369 126.826 37.3849 115.876 23.056 115.876L16.013 115.876C6.61699 115.876-0.758999 123.928 0.0619999 133.288L10.614 253.52C12.838 278.866 34.0639 298.311 59.5089 298.311L161.774 298.311C170.296 298.311 177.204 291.403 177.204 282.881L177.204 279.073C177.204 262.171 163.502 248.47 146.6 248.47L80.6398 248.47C68.9669 248.47 59.2299 239.549 58.2089 227.921Z" fill="#FED08F" transform="matrix(1 0 -0 1.00125 384 103.452)"/><path d="M18.18 115.876 16.013 115.876C6.61699 115.876-0.758999 123.928 0.0619999 133.288L10.614 253.52C12.838 278.866 34.0639 298.311 59.5089 298.311L123.409 298.311C36.6709 284.651 28.5899 255.343 18.18 115.876Z" fill="#F4E08F" transform="matrix(1 0 -0 1.00125 384 103.452)"/><path d="M474.954 361.348 357.804 361.348C353.661 361.348 350.304 357.99 350.304 353.848 350.304 349.706 353.661 346.348 357.804 346.348L474.954 346.348C479.097 346.348 482.454 349.706 482.454 353.848 482.454 357.99 479.097 361.348 474.954 361.348Z" fill="#6C0505" transform="matrix(1 0 -0 1.00125 384 103.452)"/><path d="M485.851 396.124C482.641 396.124 479.671 394.047 478.683 390.818L446.497 285.705C445.284 281.745 447.512 277.551 451.472 276.338 455.43 275.126 459.627 277.353 460.839 281.313L493.025 386.426C494.238 390.387 492.01 394.58 488.05 395.793 487.318 396.017 486.578 396.124 485.851 396.124Z" fill="#6C0505" transform="matrix(1 0 -0 1.00125 384 103.452)"/><path d="M347.158 396.124C346.43 396.124 345.691 396.018 344.959 395.793 340.999 394.58 338.771 390.386 339.984 386.426L372.17 281.313C373.383 277.352 377.574 275.124 381.537 276.338 385.497 277.551 387.725 281.745 386.512 285.705L354.326 390.818C353.338 394.046 350.367 396.124 347.158 396.124Z" fill="#6C0505" transform="matrix(1 0 -0 1.00125 384 103.452)"/><path d="M453.79 227.921 461.409 141.099C462.662 126.826 474.614 115.876 488.943 115.876L495.986 115.876C505.382 115.876 512.758 123.928 511.937 133.288L501.385 253.52C499.161 278.866 477.935 298.311 452.49 298.311L350.226 298.311C341.704 298.311 334.796 291.403 334.796 282.881L334.796 279.073C334.796 262.171 348.498 248.47 365.399 248.47L431.359 248.47C443.032 248.47 452.769 239.549 453.79 227.921Z" fill="#F4E08F" transform="matrix(1 0 -0 1.00125 384 103.452)"/><path d="M457.466 186.03 453.79 227.921C452.77 239.549 443.032 248.47 431.359 248.47L365.399 248.47C348.497 248.47 334.795 262.171 334.795 279.073L334.795 282.881C334.795 291.403 341.703 298.311 350.225 298.311L452.49 298.311C468.396 298.311 482.653 290.712 491.651 278.823 471.854 266.357 460.895 230.04 457.466 186.03Z" fill="#FED08F" transform="matrix(1 0 -0 1.00125 384 103.452)"/><path d="M236.76 201.67 275.232 201.67 275.232 357.779 236.76 357.779Z" fill="#6C0505" transform="matrix(1 0 -0 1.00125 384 103.452)"/><path d="M236.76 201.67 275.232 201.67 275.232 235.244 236.76 235.244Z" fill="#6C0505" transform="matrix(1 0 -0 1.00125 384 103.452)"/><path d="M287.743 357.775 224.256 357.775C215.108 357.775 207.114 363.955 204.811 372.809L202.997 379.781C201.833 384.255 205.21 388.622 209.832 388.622L302.166 388.622C306.789 388.622 310.165 384.255 309.002 379.781L307.188 372.809C304.885 363.955 296.892 357.775 287.743 357.775Z" fill="#F4E08F" transform="matrix(1 0 -0 1.00125 384 103.452)"/><path d="M361.689 167.419 150.31 167.419C137.404 167.419 126.276 176.492 123.677 189.134L123.677 189.134C122.347 195.606 127.29 201.669 133.897 201.669L378.102 201.669C384.709 201.669 389.652 195.606 388.322 189.134L388.322 189.134C385.723 176.492 374.595 167.419 361.689 167.419Z" fill="#FED08F" transform="matrix(1 0 -0 1.00125 384 103.452)"/><path d="M289.57 201.668C269.373 192.683 264.601 176.619 267.271 167.419L150.31 167.419C137.404 167.419 126.276 176.492 123.677 189.134 122.347 195.606 127.29 201.669 133.897 201.669L289.57 201.669 289.57 201.668Z" fill="#FED08F" transform="matrix(1 0 -0 1.00125 384 103.452)"/></g></g></g></g></svg>
